!! 00000] TT[00
!! NN
!!!OTL: Da nangoucha, Weggabelung)
!!!ARE: Asia, China, Shanxi Wubao
!! Ethnic Group: Han
!! I, 43, 1)
!!!SCT: C0008
!!!YEM: Copyright 1995, estate of Helmut Schaffrath.
**kern
*ICvox
*Ivox
*M2/4
*k[b-]
*F:
{8cc
8cc
8dd
8ff
=1
2cc
=2
8ff
16dd
16cc
8a
8g
=3
2f}
=4
{8cc
8d
4f
=5
8f
8ff
8dd
8cc
=6
8cc
16f
16g
8cc
16a
16g
=7
2f}
=8
{8.f
16g
8a
8a
=9
8g
8cc
16a
16g
8f
=10
8g
8g
8g
8d
=11
8.f
16d
4c}
==
!!!AGN: Xiaodiao, Xiu hebao. Geming lishi minge
!! neues Volkslied
!!!ONB: ESAC (Essen Associative Code) Database: CHINA
!!!AMT: simple duple
!!!AIN: vox
!!!EED: Helmut Schaffrath
!!!EEV: 1.0
*-
